X: 172
T: 2. La foire de brie
T: la Foire de Brie
B: Robert Landrin "Potpourri fran\,cois des contre-danse ancienne tel quil se danse chez la Reine ..." 1760 p.17 #2 dance 6 #2
S: http://memory.loc.gov/cgi-bin/query/D?musdibib:2:./temp/~ammem_EbRS:
Z: 2014 John Chambers <jc:trillian.mit.edu>
M: 2/4
L: 1/16
K: G
% - - - - - - - - - - - - - - - - - - - - - - - - -
!segno!DEFD |\
G2G2G2G2 | D4 GDGB | AGAB cBcA | B2G2 DEFD |\
G2G2G2G2 | D4 dcBA | GFGA B2A2 | HG4 |]
[| "2.f. enrondeau"GABc |\
dcdf edef | g4 bagb | agfa gfeg | f2d2 GABc |\
dcdf edef | g4 bagf | e2d2 ^cde^c | d4 !segno!y |]
% - - - - - - - - - - - - - - - - - - - - - - - - -

%%sep 1 1 500
%%sep 1 1 500
